packages/icons/general/Facebook.svg

<svg width="16" height="16" viewBox="0 0 16 16" xmlns="http://www.w3.org/2000/svg">
<g>
        <path
            d="M1.3349 8.00132C1.33568 11.2809 3.7205 14.0733 6.95957 14.5873V9.92799H5.26823V8.00132H6.96157V6.53466C6.88587 5.83968 7.12325 5.14705 7.60933 4.64461C8.09541 4.14217 8.7798 3.882 9.4769 3.93466C9.97726 3.94274 10.4764 3.9873 10.9702 4.06799V5.70732H10.1276C9.83746 5.66933 9.5458 5.76514 9.33475 5.96777C9.12369 6.1704 9.01608 6.45791 9.04223 6.74932V8.00132H10.8896L10.5942 9.92865H9.04223V14.5873C12.5452 14.0337 15.0016 10.8345 14.6319 7.30737C14.2622 3.78023 11.1958 1.15994 7.65412 1.34477C4.11247 1.52961 1.33546 4.45486 1.3349 8.00132Z"
            fill="white"
        />
    </g>
</svg>

<svg xmlns="http://www.w3.org/2000/svg" width="16" height="16">
    <path fill="#fff" d="M1.335 8.001a6.67 6.67 0 0 0 5.625 6.586V9.928H5.268V8.001h1.694V6.535a2.352 2.352 0 0 1 2.515-2.6c.5.008 1 .052 1.493.133v1.64h-.842a.964.964 0 0 0-1.086 1.041v1.252h1.848l-.296 1.928H9.042v4.658a6.667 6.667 0 1 0-7.707-6.586Z"/>
</svg>
